src/pages/elements/app-icons/images/1_2-17_StrokeIcons_Elements_GradientStroke_Dont2.svg

<svg data-name="Layer 1" xmlns="http://www.w3.org/2000/svg" viewBox="0 0 288 288"><defs><linearGradient id="a" x1="41.31" y1="224.27" x2="224.03" y2="41.55" gradientUnits="userSpaceOnUse"><stop offset=".1" stop-color="#00bab6"/><stop offset=".9" stop-color="#0062ff"/></linearGradient><linearGradient id="b" x1="200.41" y1="146.11" x2="216.46" y2="146.11" gradientTransform="translate(-66.5 49.5)" gradientUnits="userSpaceOnUse"><stop offset="0" stop-color="#fff" stop-opacity="0"/><stop offset="1" stop-color="#fff"/></linearGradient></defs><path fill="#fff" d="M0 0h288v288H0z"/><path data-name="Solid Icon (White)" d="M224.3 109.6h-45.88V80.93a17.23 17.23 0 00-17.2-17.21h-34.41a17.23 17.23 0 00-17.21 17.21v28.67H75.19a11.46 11.46 0 00-11.12 14.25l17.2 68.82a11.48 11.48 0 0011.13 8.69h57.35v-11.47H92.4l-17.21-68.82H224.3zM121.07 80.93a5.74 5.74 0 015.74-5.74h34.41a5.74 5.74 0 015.78 5.74v28.67h-45.93z" fill="url(#a)"/><path fill="url(#b)" d="M133.91 184.14h16.05v22.94h-16.05z" data-name="Gradients (black)"/><path d="M235.74 144h-11.46a57.41 57.41 0 01-57.34 57.34v11.47a68.88 68.88 0 0068.8-68.81zm-68.8 22.93v11.47a34.44 34.44 0 0034.4-34.4h-11.47a23 23 0 01-22.93 22.93z" fill="#051b75"/></svg>

<svg id="Layer_1" data-name="Layer 1" xmlns="http://www.w3.org/2000/svg" xmlns:xlink="http://www.w3.org/1999/xlink" viewBox="0 0 288 288"><defs><style>.cls-1{fill:#fff;}.cls-2{fill:url(#linear-gradient);}.cls-3{fill:url(#linear-gradient-2);}.cls-4{fill:#051b75;}</style><linearGradient id="linear-gradient" x1="41.31" y1="224.27" x2="224.03" y2="41.55" gradientUnits="userSpaceOnUse"><stop offset="0.1" stop-color="#00bab6"/><stop offset="0.9" stop-color="#0062ff"/></linearGradient><linearGradient id="linear-gradient-2" x1="200.41" y1="146.11" x2="216.46" y2="146.11" gradientTransform="translate(-66.5 49.5)" gradientUnits="userSpaceOnUse"><stop offset="0" stop-color="#fff" stop-opacity="0"/><stop offset="1" stop-color="#fff"/></linearGradient></defs><title>Artboard 18 copy 152</title><rect class="cls-1" width="288" height="288"/><path id="Solid_Icon_White_" data-name="Solid Icon (White)" class="cls-2" d="M224.3,109.6H178.42V80.93a17.23,17.23,0,0,0-17.2-17.21H126.81A17.23,17.23,0,0,0,109.6,80.93V109.6H75.19a11.46,11.46,0,0,0-11.12,14.25l17.2,68.82a11.48,11.48,0,0,0,11.13,8.69h57.35V189.89H92.4L75.19,121.07H224.3ZM121.07,80.93a5.74,5.74,0,0,1,5.74-5.74h34.41A5.74,5.74,0,0,1,167,80.93V109.6H121.07Z"/><g id="Gradients_black_" data-name="Gradients (black)"><rect class="cls-3" x="133.91" y="184.14" width="16.05" height="22.94"/></g><path class="cls-4" d="M235.74,144H224.28a57.41,57.41,0,0,1-57.34,57.34v11.47A68.88,68.88,0,0,0,235.74,144Z"/><path class="cls-4" d="M166.94,166.93V178.4a34.44,34.44,0,0,0,34.4-34.4H189.87A23,23,0,0,1,166.94,166.93Z"/></svg>
